X:1
T:Dance Of The Moorish Slaves
T:Dance Of The Moorish Slaves
T:from Aida II Act
T:G. Verdi
T:Copió y Arregló:Daniel Sarmiento
T:©Daniel Sarmiento Copyrigth MCMXXXVI by Sam Fox Pub. Co., Cleveland, O., U.S.A All Rights Resesrved, Icluding Public Performance for Profit
T:©Daniel Sarmiento Copyrigth MCMXXXVI by Sam Fox Pub. Co., Cleveland, O., U.S.A All Rights Resesrved, Icluding Public Performance for Profit
T:©Daniel Sarmiento Copyrigth MCMXXXVI by Sam Fox Pub. Co., Cleveland, O., U.S.A All Rights Resesrved, Icluding Public Performance for Profit
T:©Daniel Sarmiento Copyrigth MCMXXXVI by Sam Fox Pub. Co., Cleveland, O., U.S.A All Rights Resesrved, Icluding Public Performance for Profit
C:G. Verdi
Z:Copió y Arregló:Daniel Sarmiento
Z:©Daniel Sarmiento Copyrigth MCMXXXVI by Sam Fox Pub. Co., Cleveland, O., U.S.A All Rights Resesrved, Icluding Public Performance for Profit
%%score { ( 1 4 ) | 2 | ( 3 5 ) }
L:1/8
Q:1/4=152
M:4/4
K:Bb
V:1 treble nm="Piano" snm="Pno."
V:4 treble 
V:2 treble 
V:3 bass 
V:5 bass 
V:1
!p! !>!D2!pp! .[gg'].[gg'] .d'.f'.c'.e' | .b.d'.a.d' .b.g.a.d' | !>!D2 .g.g .d'.f'.c'.e' | %3
 .b.d'.a.d' .b.g.a.d' | g z .G.A .B.d.g.a | .b.g.e.c .B.G.B.F | ^F z .G.A .B.d.g.a | %7
 .b.g._a.e ._d._A.=d.D |"^1" G2!<(! .G,.A, .B,.C.D.E | !>!d2!<)!!pp! .d.d .a.a.g.g | %10
 .^f z!<(! .G,.A, .B,.C.D.E | !>!d2!<)!!pp! .d.d .a.a.g.g | ^f z!mf! .[gg'].[gg'] .d'.f'.c'.e' | %13
 .b.d'.a.d' .b.g.a.d' | !>!D2 .g.g .d'.f'.c'.e' | .b.d'.a.d' .b.g.a.d' | g z .G.A .B.d.g.a | %17
 .b.g.e.c .B.G.B.F | ^F z .G.A .B.d.g.a | .b.g._a.e ._d._A.=d.D |"^2" G2!mf! .G.G !>!c2 .G.G | %21
 !>!c2 .G.G .c.c.=B.B | !>!G2 .G.G !>!d2 .G.G | !>!d2 .G.G .d.d.=e.e | %24
 !>![cc']2 .g.g !>![cc']2 .g.g | !>![cc']2 .g.g .c'.c'.=b.b | !>!g2 .g.g !>!d'2 .g.g | %27
 !>!d'2 .g.g .d'.d'.=e'.e' |"^3" !>!c'2 .g.g .g.g.g.f |{/!>!f} !>!d2 .f.f .f.f.f.=e | %30
{/!>!=e} !>!c2 .c.c .d.c.d.c | .d.c.d.c!<(! .d.c.d.=e!<)! |!>(! f2!>)!!pp! .g.g .g.g.g.f | %33
{/f} !>!d2 .f.f .f.f.f.=e |{/=e} !>!c2 .c.c .d.c.d.c | .d.c.d.c!<(! .d.=e.f.g!<)! | %36
"^4" c2!mf! .[gg'].[gg'] .d'.f'.c'.e' | .b.d'.a.d' .b.g.a.d' | !>!D2 .g.g .d'.f'.c'.e' | %39
 .b.d'.a.d' .b.g.a.d' | g z .G.A .B.d.g.a | .b.g.e.c .B.G.B.F | ^F z .G.A .B.d.g.a | %43
 .b.g._a.e ._d._A.=d.D |"^5" G2!ff! .g.a .=b.c'.b.a | .=b.c'.b.a .b.c'.b.a | %46
 !>!=b/a/.g .g.a .b.c'.b.a | .=b.c'.b.a .b.c'.b.a | !>!d'/=b/.g .g.a .b.c'.b.a | %49
 .=b.c'.b.a .b.c'.b.a | !>!=b/a/.g .g.a .b.c'.b.a | .=b.c'.b.a .b.c'.b.a | %52
"^6" g2!f!!f! .g.g .g.g.g.g | .g.g.g.g .g.g.g.g | .g.g.g.g .g.g.g.g | .g.g.g.g .g.g.g.g | %56
 g2!ff! .G.A .B.d.e.a!ff! | .b.g.G.A .B.d.e.a | .b.g.G.A .B.d.e.a | .b.g._a.e _d z !>![A^fd']2 | %60
 !>![Bdg]2 z2 z4 :| %61
V:2
!p! !>!D2 z2!pp! z .[DF]z.[CE] | z .[B,D]z.[A,D] z .[B,D]z.[A,D] | !>!D2 z2 z .[DF]z.[CE] | %3
 z .[B,D]z.[A,D] z .[B,D]z.[CD^F] | [B,DG] z z2 z .[B,D]z.[CE^F] | %5
 z .[B,DG]z.[CE] z .[B,D]z.[B,D] | [A,D^F] z z2 z .[B,D]z.[CE^F] | %7
 z .[B,DG]z.[CE] z .[_A,_D=F]z.[C=D^F] | [B,DG]2!<(! .[GB].[GB] .[GB].[GB].[GB].[GB] | %9
 !>![Ad]2!<)! .[Bd].[Bd] .[da].[da].[Aga].[Aga] | .[A^fa] z!<(! .[GB].[GB] .[GB].[GB].[GB].[GB] | %11
 !>![Ad]2!<)!!p! .[Bd].[Bd] .[da].[da].[Aga].[Aga] | [A^fa] z z2!mf! z .[DF]z.[CE] | %13
 z .[B,D]z.[A,D] z .[B,D]z.[A,D] | !>!D2 z2 z .[DF]z.[CE] | z .[B,D]z.[A,D] z .[B,D]z.[CD^F] | %16
 [B,DG] z z2 z .[B,D]z.[CE^F] | z .[B,DG]z.[CE] z .[B,D]z.[B,D] | [A,D^F] z z2 z [B,D]z[CE^F] | %19
 z [B,DG]z[CE] z [_A,_D=F]z[C=D^F] | [B,DG]2 .[=EG].[EG] !>![Fc]2 .[EG].[EG] | %21
 !>![Fc]2 .[=EG].[EG] .[Fc].[Fc].[F=B].[FB] | !>![FG]2 .[FG].[FG] !>![FAd]2 .[FG].[FG] | %23
 !>![FAd]2 .[FG].[FG] .[FAd].[FAd].[G=B=e].[GBe] | !>![=Ec]2 .[EG].[EG] !>![Fc]2 .[EG].[EG] | %25
 !>![Fc]2 .[=EG].[EG] .[Fc].[Fc].[F=B].[FB] | !>![FG]2 .[FG].[FG] !>![FAd]2 .[FG].[FG] | %27
 !>![FAd]2 .[FG].[FG] .[FAd].[FAd].[G=B=e].[GBe] | %28
 !>![=Ec]2 .[=Bdg].[Bdg] .[Bdg].[Bdg].[Bdg].[Acf] | %29
 !>![FAd]2 .[Acf].[Acf] .[Acf].[Acf].[Acf].[G=B=e] | %30
 !>![=EGc]2 .[EGc].[EGc] .[FAd].[EGc].[FAd].[EGc] | %31
 .[FAd].[=EGc].[FAd].[EGc]!<(! .[FAd].[EGc].[FAd].[G=B=e]!<)! | %32
!>(! [Acf]2!>)!!pp! .[=Bdg].[Bdg] .[Bdg].[Bdg].[Bdg].[Acf] | %33
 !>![FAd]2 .[Acf].[Acf] .[Acf].[Acf].[Acf].[G=B=e] | %34
 !>![=EGc]2 .[EGc].[EGc] .[FAd].[EGc].[FAd].[EGc] | %35
 .[FAd].[=EGc].[FAd].[EGc]!<(! .[FAd].[G=B=e].[Acf].[Bdg]!<)! | [=EGc]2 z2!mf! z .[DF]z.[C_E] | %37
 z .[B,D]z.[A,D] z .[B,D]z.[A,D] | !>!D2 z2 z .[DF]z.[CE] | z .[B,D]z.[A,D] z .[B,D]z.[CD^F] | %40
 [B,DG] z z2 z .[B,D]z.[CE^F] | z .[B,DG]z.[CE] z .[B,D]z.[B,D] | [A,D^F] z z2 z .[B,D]z.[CE^F] | %43
 z .[B,DG]z.[CE] z .[_A,_D=F]z.[C=D^F] | [B,DG]2 z2!ff! .[=EG].[EG].[EG].[EG] | %45
 .[=EG].[EG].[EG].[EG] .[EG].[EG].[EG].[EG] | [DG]2 z2 .[=EG].[EG].[EG].[EG] | %47
 .[=EG].[EG].[EG].[EG] .[DG].[DG].[CD^F].[CDF] | [=B,DG]2 z2 .[^DG].[DG].[DG].[DG] | %49
 .[=EG].[EG].[EG].[EG] .[_EG].[EG].[EG].[EG] | .[DG].[DG].[DG].[DG] .[^DG].[DG].[DG].[DG] | %51
 .[=EG].[EG].[EG].[EG] .[CF].[CF].[C^F].[CF] | [=B,G]2 .G.G .D.F.C.E | .B,.D.A,.D .B,.G,.A,.D | %54
 !>!B,/A,/.G, .G.G .D.F.C.E | .B,.D.A,.D .B,.G,.A,.D | G,2 z2 !>![B,DG] z !>![CE^F] z | %57
 !>![B,DG] z z2 !>![B,DG] z !>![CE^F] z | !>![B,DG] z z2 !>![B,DG] z !>![CE^F] z | %59
 !>![B,DG] z !>![CE_A] z !>![_DA_d] z !>![=D^F=A=d]2 | !>![B,DG]2 z2 z4 :| %61
V:3
 !>![D,,D,]2 z2 .[G,,G,]z.[G,,G,] z | .[G,,G,]z.[F,,F,] z .[G,,G,]z.[F,,F,] z | %2
 !>![D,,D,]2 z2 .[G,,G,]z.[G,,G,] z | .[G,,G,]z.[F,,F,] z .[G,,G,]z.[D,,D,] z | %4
 [G,,G,] z z2 .[G,,G,]z.[G,,G,] z | .[G,,G,]z.[C,,C,] z .[D,,D,]z.[B,,,B,,] z | %6
 [D,,A,,D,] z z2 .[G,,G,]z.[G,,G,] z | .[G,,G,]z.[C,,C,] z .[F,,F,]z.[=D,,=D,] z | %8
 [G,,G,]2 .G,.A, .B,.C.D.E | !>!F2 .G.G .F.D._E.^C | .D.D.G,.A, .B,.C.D.E | !>!F2 .G.G .F.D._E.^C | %12
 .D.D z2 .[G,,G,]z.[G,,G,] z | .[G,,G,]z.[F,,F,] z .[G,,G,]z.[F,,F,] z | %14
 !>![D,,D,]2 z2 .[G,,G,]z.[G,,G,] z | .[G,,G,]z.[F,,F,] z .[G,,G,]z.[D,,D,] z | %16
 [G,,G,] z z2 .[G,,G,]z.[G,,G,] z | .[G,,G,]z.[C,,C,] z .[D,,D,]z.[B,,,B,,] z | %18
 [D,,A,,D,] z z2 .[G,,G,]z.[G,,G,] z | .[G,,G,]z.[C,,C,] z .[F,,F,]z.[=D,,=D,] z | %20
 [G,,G,]2 .C.C !>!A,2 .C.C | !>!A,2 .C.C .A,.A,.G,.G, | !>!=B,2 .B,.B, !>!A,2 .B,.B, | %23
 !>!A,2 .=B,.B, .A,.A,.G,.G, | !>!C2 .C.C !>!A,2 .C.C | !>!A,2 .C.C .A,.A,.G,.G, | %26
 !>!=B,2 .B,.B, !>!A,2 .B,.B, | !>!A,2 .=B,.B, .A,.A,.G,.G, | !>!C,2 z2 z4 | %29
 G,,.G,.G,.G, .G,.G,.G,.G, | G,,.G,.G,.G, .G,.G,.G,.G, | .G,,.G,.G,,.G, .G,,.G,.G,,.G, | %32
 G,,.G,.G,.G, .G,.G,.G,.G, | G,,.G,.G,.G, .G,.G,.G,.G, | G,,.G,.G,.G, .G,.G,.G,.G, | %35
 .G,,.G,.G,,.G, .G,,.G,.G,,.G, | C,2 z2 .[G,,G,]z.[G,,G,] z | %37
 .[G,,G,]z.[F,,F,] z .[G,,G,]z.[F,,F,] z | !>![D,,D,]2 z2 .[G,,G,]z.[G,,G,] z | %39
 .[G,,G,]z.[F,,F,] z .[G,,G,]z.[D,,D,] z | [G,,G,] z z2 .[G,,G,]z.[G,,G,] z | %41
 .[G,,G,]z.[C,,C,] z .[D,,D,]z.[B,,,B,,] z | [D,,A,,D,] z z2 .[G,,G,]z.[G,,G,] z | %43
 .[G,,G,]z.[C,,C,] z .[F,,F,]z.[=D,,=D,] z | %44
 [G,,G,]2 z2 .[G,,=E,G,].[G,,E,G,].[G,,E,G,].[G,,E,G,] | %45
 .[G,,=E,G,].[G,,E,G,].[G,,E,G,].[G,,E,G,] .[G,,E,G,].[G,,E,G,].[G,,E,G,].[G,,E,G,] | %46
 [G,,D,G,]2 z2 .[G,,=E,G,].[G,,E,G,].[G,,E,G,].[G,,E,G,] | %47
 .[G,,=E,G,].[G,,E,G,].[G,,E,G,].[G,,E,G,] .[G,,D,G,].[G,,D,G,].[G,,D,].[G,,D,] | %48
 [G,,D,G,]2 z2 .[G,,^D,G,].[G,,D,G,].[G,,D,G,].[G,,D,G,] | %49
 .[G,,=E,G,].[G,,E,G,].[G,,E,G,].[G,,E,G,] .[G,,_E,G,].[G,,E,G,].[G,,E,G,].[G,,E,G,] | %50
 .[G,,D,G,].[G,,D,G,].[G,,D,G,].[G,,D,G,] .[G,,^D,G,].[G,,D,G,].[G,,D,G,].[G,,D,G,] | %51
 .[G,,=E,G,].[G,,E,G,].[G,,E,G,].[G,,E,G,] .[G,,C,G,].[G,,C,G,].[G,,D,].[G,,D,] | %52
 [G,,D,G,]2 .G,.G, .D,.F,.C,.E, | .B,,.D,.A,,.D, .B,,.G,,.A,,.D, | %54
 !>!B,,/A,,/.G,, .G,.G, .D,.F,.C,.E, | .B,,.D,.A,,.D, .B,,.G,,.A,,.D, | %56
 G,,2 z2 !>![G,,D,G,] z !>![G,,E,A,] z | !>![G,,D,G,] z z2 !>![G,,D,G,] z !>![G,,E,A,] z | %58
 !>![G,,D,G,] z z2 !>![G,,D,G,] z !>![G,,E,A,] z | %59
 !>![G,,D,G,] z !>![C,,C,] z !>![F,,F,] z !>![D,,D,]2 | !>![G,,D,G,]2 z2 z4 :| %61
V:4
 x8 | x8 | x8 | x8 | x8 | x4 B,4- | B, z x6 | x4 .F,2 .[^F,C]2 | [G,B,]2 x6 | [FA]2 x6 | x8 | %11
 [FA]2 x6 | x8 | x8 | x8 | x8 | x8 | x4 B,4- | B, z x6 | x4 .F,2 .[^F,C]2 | [G,B,]2 x6 | x8 | x8 | %23
 x8 | x8 | x8 | x8 | x8 | x8 | x8 | x8 | x8 | x8 | x8 | x8 | x8 | x8 | x8 | x8 | x8 | x8 | x8 | %42
 x8 | x8 | x8 | x8 | x8 | x8 | x8 | x8 | x8 | x8 | x2 .G.G .D.F.C.E | .B,.D.A,.D .B,.G,.A,.D | %54
 !>!B,/A,/.G, .G.G .D.F.C.E | .B,.D.A,.D .B,.G,.A,.D | G,2 x6 | x8 | x8 | x8 | x8 :| %61
V:5
 x8 | x8 | x8 | x8 | x8 | x8 | x8 | x8 | x8 | x8 | x8 | x8 | x8 | x8 | x8 | x8 | x8 | x8 | x8 | %19
 x8 | x2 z2 C,4- | C,8 | C,8- | C,8 | C,8- | C,8 | C,8- | C,8 | x8 | x8 | x8 | x8 | x8 | x8 | x8 | %35
 x8 | x8 | x8 | x8 | x8 | x8 | x8 | x8 | x8 | x8 | x8 | x8 | x8 | x8 | x8 | x8 | x8 | x8 | x8 | %54
 x8 | x8 | x8 | x8 | x8 | x8 | x8 :| %61

